X: 13
T: Green Fields Of Rossbeigh, The
Z: UPipes & harp
S: https://thesession.org/tunes/322#setting49874
R: reel
M: 4/4
L: 1/8
K: Edor
|:F/A/|BE~E2 BAFB|ABde fded|BE~E2 BAFA|BFAF EFGA|
~B2 dB BAFB|ABde fded|BE~E2 BAFA|BFAF E3:|
|:A|Bdef gfge|dB~B2 dBAd|Bd ef gfge|dBAF E2ef|
~g3a gfeg|~f3g fedB|ABde fdec|dBAF E3:|

